assets/images/mui.svg

<svg width="24" height="24" viewBox="0 0 24 24" fill="none" xmlns="http://www.w3.org/2000/svg">
<path d="M20.229 16.3887C20.3302 16.3213 20.4144 16.2244 20.473 16.1075C20.5317 15.9905 20.5628 15.8576 20.563 15.7223L20.575 11.259C20.5752 11.1236 20.6063 10.9908 20.665 10.8737C20.7239 10.7567 20.8084 10.6598 20.91 10.5926L23 9.20084C23.1014 9.13376 23.2162 9.09865 23.333 9.09903C23.45 9.09935 23.5648 9.13526 23.666 9.20315C23.7672 9.27053 23.8513 9.36747 23.91 9.48428C23.9684 9.60143 23.9991 9.7343 23.999 9.86952V17.984C23.9989 18.1197 23.9679 18.253 23.9091 18.3704C23.8503 18.4878 23.7657 18.5852 23.664 18.6527L15.771 23.8981C15.6702 23.9649 15.5561 24 15.44 24C15.3239 24 15.2098 23.9649 15.109 23.8981L8.915 19.8004C8.81294 19.733 8.72808 19.6356 8.669 19.5181C8.60998 19.4003 8.57893 19.2666 8.579 19.1305V15.0386C8.579 15.0339 8.583 15.0316 8.587 15.0339C8.591 15.0362 8.595 15.0339 8.595 15.0281V15.0235C8.595 15.02 8.597 15.0177 8.599 15.0154L13.701 11.6257C13.705 11.6222 13.703 11.6141 13.698 11.6141L13.6958 11.6135L13.694 11.6118L13.6931 11.6096L13.693 11.6072L13.703 7.59621C13.7035 7.46035 13.6729 7.32676 13.6144 7.20894C13.556 7.09112 13.4717 6.99324 13.37 6.92521C13.2686 6.85749 13.1536 6.82183 13.0365 6.82183C12.9194 6.82183 12.8044 6.85749 12.703 6.92521L8.912 9.4542C8.81084 9.52149 8.69619 9.55691 8.5795 9.55691C8.46281 9.55691 8.34816 9.52149 8.247 9.4542L4.443 6.92058C4.34169 6.85332 4.22689 6.81801 4.11008 6.8182C3.99327 6.81839 3.87855 6.85406 3.7774 6.92165C3.67625 6.98924 3.59222 7.08637 3.53371 7.20333C3.4752 7.32029 3.44426 7.45298 3.444 7.58812V14.8384C3.44404 14.9736 3.4134 15.1064 3.35513 15.2235C3.29687 15.3407 3.21303 15.4381 3.112 15.5059C3.01112 15.5737 2.89664 15.6096 2.78 15.6101C2.66321 15.6104 2.54838 15.5753 2.447 15.5083L0.336001 14.1119C0.233939 14.0445 0.149076 13.9471 0.0900014 13.8296C0.0308111 13.7115 -0.000245003 13.5774 1.45555e-06 13.4409L0.0190015 0.769343C0.0193641 0.634376 0.0503193 0.50188 0.108777 0.385079C0.167235 0.268278 0.251151 0.171258 0.352149 0.103704C0.453147 0.0361494 0.567694 0.000423208 0.684357 9.10974e-05C0.80102 -0.000241013 0.915717 0.0348327 1.017 0.101811L8.247 4.90642C8.34816 4.97372 8.46281 5.00914 8.5795 5.00914C8.69619 5.00914 8.81084 4.97372 8.912 4.90642L16.14 0.101811C16.2414 0.0346821 16.3562 -0.000427912 16.473 3.93615e-06C16.59 0.000275712 16.7048 0.0361873 16.806 0.104125C16.9073 0.17183 16.9915 0.269182 17.05 0.386409C17.108 0.503697 17.1383 0.636542 17.138 0.771657V13.4467C17.138 13.582 17.108 13.7151 17.049 13.8331C16.9902 13.9504 16.9057 14.0478 16.804 14.1153L13.019 16.6374C12.9172 16.7053 12.8327 16.803 12.774 16.9208C12.7155 17.0383 12.6848 17.1716 12.685 17.3072C12.6851 17.443 12.7162 17.5762 12.775 17.6936C12.8343 17.8113 12.9195 17.9088 13.022 17.9759L15.11 19.3515C15.2106 19.4174 15.3243 19.4521 15.44 19.4521C15.5565 19.452 15.671 19.4165 15.772 19.3492L20.229 16.3875V16.3887ZM20.667 5.01864C20.6669 5.15476 20.6979 5.28848 20.757 5.4062C20.8166 5.52406 20.9022 5.62147 21.005 5.68849C21.1075 5.75546 21.2234 5.78988 21.3411 5.78825C21.4587 5.78663 21.574 5.74901 21.675 5.67923L23.676 4.29095C23.7747 4.22249 23.8563 4.12564 23.913 4.00982C23.97 3.89379 23.9999 3.76264 24 3.6292V0.801736C23.9998 0.665521 23.9684 0.531805 23.909 0.414174C23.8495 0.296534 23.7641 0.199234 23.6615 0.132174C23.5589 0.0651143 23.4428 0.0306876 23.325 0.0323972C23.2073 0.0339238 23.0921 0.0714429 22.991 0.141146L20.991 1.52943C20.892 1.59772 20.81 1.69459 20.753 1.81055C20.6964 1.92672 20.6668 2.05784 20.667 2.19117V5.0198V5.01864Z" fill="#626262"/>
</svg>

<svg width="24" height="24" viewBox="0 0 24 24" fill="none" xmlns="http://www.w3.org/2000/svg"><path d="M20.229 16.389a.727.727 0 0 0 .244-.281.865.865 0 0 0 .09-.386l.012-4.463c0-.135.031-.268.09-.385a.726.726 0 0 1 .245-.281L23 9.2a.599.599 0 0 1 .333-.102.6.6 0 0 1 .333.104.728.728 0 0 1 .244.281c.058.117.09.25.089.386v8.114a.867.867 0 0 1-.09.386.728.728 0 0 1-.245.283l-7.893 5.245a.598.598 0 0 1-.331.102.598.598 0 0 1-.331-.102L8.915 19.8a.728.728 0 0 1-.246-.282.867.867 0 0 1-.09-.387v-4.092c0-.005.004-.007.008-.005s.008 0 .008-.006v-.005c0-.003.002-.005.004-.008l5.102-3.39c.004-.003.002-.01-.003-.01l-.002-.002-.002-.001v-.002l-.001-.003.01-4.01c0-.137-.03-.27-.089-.388a.728.728 0 0 0-.244-.284.599.599 0 0 0-.333-.103.599.599 0 0 0-.334.103l-3.791 2.53a.599.599 0 0 1-.333.102.599.599 0 0 1-.332-.103L4.443 6.921a.599.599 0 0 0-.333-.103.6.6 0 0 0-.333.104.728.728 0 0 0-.243.281.866.866 0 0 0-.09.385v7.25c0 .136-.03.268-.089.386a.728.728 0 0 1-.243.282.598.598 0 0 1-.332.104.6.6 0 0 1-.333-.102L.336 14.112a.727.727 0 0 1-.246-.282.867.867 0 0 1-.09-.39L.019.77c0-.136.031-.268.09-.385A.728.728 0 0 1 .352.104.6.6 0 0 1 .684 0a.6.6 0 0 1 .333.102l7.23 4.804a.599.599 0 0 0 .332.103.599.599 0 0 0 .333-.103L16.14.102A.598.598 0 0 1 16.473 0c.117 0 .232.036.333.104a.728.728 0 0 1 .244.282c.058.118.088.25.088.386v12.675c0 .135-.03.268-.089.386a.728.728 0 0 1-.245.282l-3.785 2.522a.729.729 0 0 0-.245.284.867.867 0 0 0 .001.773.73.73 0 0 0 .247.282l2.088 1.376a.6.6 0 0 0 .33.1.598.598 0 0 0 .332-.103l4.457-2.962v.002Zm.438-11.37c0 .136.03.27.09.387.06.118.145.215.248.282a.598.598 0 0 0 .336.1.601.601 0 0 0 .334-.109l2.001-1.388a.731.731 0 0 0 .237-.281.867.867 0 0 0 .087-.38V.801a.865.865 0 0 0-.091-.388.726.726 0 0 0-.247-.282.598.598 0 0 0-.671.01l-2 1.387a.731.731 0 0 0-.238.282.869.869 0 0 0-.086.38v2.83-.001Z" fill="#626262"/></svg>
